public/iconset/Menu.svg

<?xml version="1.0" encoding="UTF-8"?>
<svg width="24px" height="24px" viewBox="0 0 24 24" version="1.1" xmlns="http://www.w3.org/2000/svg" xmlns:xlink="http://www.w3.org/1999/xlink">
    <!-- Generator: Sketch 48.1 (47250) - http://www.bohemiancoding.com/sketch -->
    <title>24x24</title>
    <desc>Created with Sketch.</desc>
    <defs></defs>
    <g id="Page-1" stroke="none" stroke-width="1" fill="none" fill-rule="evenodd">
        <g id="Menu">
            <rect id="24x24" x="0" y="0" width="24" height="24"></rect>
            <path d="M7,12.5 L7,11.5 L17,11.5 L17,12.5 L7,12.5 Z M7,16.5 L7,15.5 L17,15.5 L17,16.5 L7,16.5 Z M7,8.5 L7,7.5 L17,7.5 L17,8.5 L7,8.5 Z" id="Combined-Shape" fill="#000000" fill-rule="nonzero"></path>
        </g>
    </g>
</svg>

<svg id="target" xmlns="http://www.w3.org/2000/svg" viewBox="0 0 24 24"><title>Menu</title><g id="Icons"><g id="Menu"><g id="Group"><path id="Combined-Shape" d="M7,12.5v-1H17v1Zm0,4v-1H17v1Zm0-8v-1H17v1Z"/></g></g></g></svg>
